images/gymnastics_theme_dark.svg

<svg width="50" height="50" viewBox="0 0 50 50" fill="none" xmlns="http://www.w3.org/2000/svg">
<path fill-rule="evenodd" clip-rule="evenodd" d="M23.2434 0.207715C23.0126 0.321973 22.7128 0.560939 22.5771 0.738771C22.4414 0.916603 21.6523 2.58575 20.8234 4.44806L19.3165 7.8339V13.5295C19.3165 18.8706 19.3058 19.2281 19.1456 19.2726C19.0515 19.2988 18.6669 19.3482 18.2909 19.3825C17.9148 19.4166 16.816 19.5326 15.849 19.64C14.882 19.7475 13.5414 19.9223 12.8699 20.0287C12.1984 20.1349 11.2221 20.3269 10.7004 20.4553C10.1786 20.5837 9.48455 20.8086 9.15792 20.9552C8.8313 21.1018 8.45769 21.348 8.32778 21.5024C8.19787 21.6568 8.06376 21.9313 8.02977 22.1124C7.98806 22.3345 8.0243 22.5607 8.14093 22.8064C8.24612 23.028 8.48894 23.2819 8.76048 23.4541C9.00614 23.6099 9.47127 23.8191 9.79428 23.9189C10.1173 24.0187 10.7986 24.1904 11.3083 24.3004C11.8179 24.4105 12.8504 24.5885 13.6025 24.696C14.3546 24.8036 15.5853 24.9587 16.3374 25.0409C17.0895 25.123 18.6499 25.2789 19.8049 25.3872C20.9599 25.4956 21.9531 25.5846 22.0121 25.585C22.0711 25.5855 22.203 25.7709 22.3052 25.9972C22.4644 26.3497 22.4909 26.6463 22.4909 28.0718V29.7352L20.5863 29.9047C19.5387 29.9981 17.6487 30.1881 16.3862 30.3271C15.1238 30.4662 13.3436 30.7077 12.4304 30.8639C11.5171 31.0202 10.4118 31.259 9.9742 31.3948C9.53661 31.5306 8.96521 31.7842 8.70442 31.9586C8.3521 32.194 8.19445 32.3791 8.09062 32.6792C7.96911 33.0305 7.9695 33.1319 8.09355 33.4604C8.1923 33.7217 8.3816 33.9356 8.70881 34.1556C8.96883 34.3304 9.54081 34.583 9.97996 34.717C10.419 34.8509 11.2482 35.0467 11.8225 35.1522C12.3969 35.2577 13.5157 35.4322 14.309 35.5401C15.1023 35.6479 16.8722 35.8466 18.2421 35.9816C19.612 36.1167 21.1284 36.2609 21.6119 36.302L22.4909 36.3769L22.5572 39.9902C22.5936 41.9775 22.6655 44.021 22.7168 44.5312C22.7682 45.0415 22.8043 45.4635 22.7971 45.4689C22.7898 45.4744 22.1466 45.4205 21.3677 45.3491C20.5887 45.2777 18.8525 45.1059 17.5095 44.9675C16.1664 44.8289 14.3643 44.61 13.5048 44.4809C12.6452 44.3518 11.6188 44.1782 11.2238 44.095C10.8288 44.0118 10.4392 43.9066 10.3581 43.8612C10.2509 43.8013 10.3405 43.746 10.6856 43.659C10.9469 43.5931 11.6192 43.4549 12.1796 43.3517C12.7401 43.2487 13.8829 43.0779 14.7192 42.9723C15.5555 42.8665 16.921 42.7126 17.7537 42.6302C18.5864 42.5477 19.4823 42.4534 19.7448 42.4206L20.2219 42.3608L20.1686 41.583C20.1393 41.1552 20.0916 40.7815 20.0627 40.7525C20.0337 40.7236 19.2717 40.7735 18.369 40.8636C17.4665 40.9535 16.0028 41.1152 15.1164 41.2228C14.23 41.3304 13.0057 41.5036 12.3956 41.6078C11.7855 41.7119 10.9345 41.8847 10.5046 41.9916C10.0746 42.0986 9.46209 42.3031 9.14347 42.4461C8.82475 42.5891 8.45769 42.8324 8.32778 42.9868C8.19787 43.1412 8.06327 43.4181 8.02879 43.6021C7.98513 43.8346 8.02127 44.0494 8.14698 44.3054C8.24651 44.508 8.50379 44.7926 8.71868 44.9377C8.93356 45.0827 9.38444 45.2922 9.72073 45.403C10.0569 45.514 10.875 45.7145 11.5385 45.8489C12.202 45.9832 13.3994 46.179 14.1993 46.284C14.9992 46.389 16.291 46.5425 17.0699 46.6251C17.8489 46.7077 19.4313 46.8633 20.5863 46.9708C21.7413 47.0783 22.7591 47.1667 22.848 47.1671C22.9698 47.1678 23.0258 47.295 23.0744 47.6807C23.1099 47.9626 23.2002 48.4138 23.2749 48.6831C23.3597 48.9882 23.5322 49.2896 23.7323 49.4827C23.9091 49.6532 24.1775 49.8394 24.3287 49.8964C24.4799 49.9533 24.7738 50 24.9817 50C25.1895 50 25.4834 49.9533 25.6346 49.8964C25.7858 49.8394 26.0537 49.6538 26.2297 49.484C26.4197 49.3008 26.6084 48.9784 26.6936 48.691C26.7728 48.4246 26.8375 48.0815 26.8375 47.9284C26.8375 47.7641 26.9011 47.6257 26.9929 47.5905C27.0784 47.5577 27.9905 47.606 29.0197 47.6978C30.049 47.7895 32.0778 47.9963 33.5283 48.1573C34.9788 48.3184 36.7851 48.5546 37.5424 48.6824C38.2997 48.8102 39.2227 49.0161 39.5936 49.14C40.2283 49.352 40.2697 49.3839 40.2985 49.6826L40.3292 50H41.9772V49.5021C41.9772 49.2282 41.9081 48.8584 41.8235 48.6803C41.739 48.5021 41.5082 48.2453 41.3107 48.1095C41.1132 47.9736 40.8198 47.8115 40.6586 47.7493C40.4975 47.6871 40.0579 47.5494 39.6819 47.4434C39.3058 47.3373 38.5564 47.1692 38.0167 47.0698C37.4768 46.9705 36.356 46.8005 35.526 46.6921C34.6958 46.5837 33.0936 46.4036 31.9655 46.2919C30.8373 46.1802 29.2989 46.0344 28.5468 45.9679L27.1794 45.847L27.194 45.4088C27.202 45.1679 27.2566 44.2704 27.3153 43.4144C27.3777 42.5065 27.4666 41.8305 27.5291 41.7921C27.5879 41.7556 28.0387 41.6963 28.531 41.6599C29.0232 41.6237 30.5028 41.4851 31.819 41.3521C33.1352 41.219 34.8779 41.0218 35.6917 40.9137C36.5055 40.8055 37.6044 40.6342 38.1336 40.5328C38.6628 40.4314 39.4055 40.2621 39.784 40.1566C40.1625 40.0512 40.6966 39.8512 40.9709 39.7122C41.2452 39.5732 41.5607 39.3438 41.672 39.2023C41.7834 39.0608 41.9021 38.7975 41.9359 38.6174C41.978 38.393 41.9403 38.1729 41.8164 37.9192C41.6949 37.6705 41.4668 37.4484 41.1221 37.2431C40.8397 37.075 40.1804 36.8229 39.657 36.683C39.1334 36.543 38.3315 36.3625 37.8749 36.2817C37.4182 36.2009 36.5717 36.0694 35.9936 35.9895C35.4156 35.9096 33.9211 35.7364 32.6727 35.6046C31.4242 35.4726 29.7315 35.3099 28.9113 35.2428L27.4198 35.1211L27.4724 31.0058L28.3515 30.9311C28.835 30.89 30.3294 30.7465 31.6725 30.6123C33.0155 30.478 34.7902 30.2784 35.6161 30.1686C36.4421 30.0588 37.5829 29.8836 38.1514 29.7792C38.72 29.6748 39.5386 29.4813 39.9707 29.3493C40.4028 29.2173 40.9676 28.9751 41.2258 28.8111C41.5292 28.6183 41.7464 28.3906 41.8397 28.1672C41.9338 27.9423 41.9611 27.6957 41.9182 27.4606C41.8758 27.2273 41.7246 26.9766 41.4909 26.7521C41.2863 26.5555 40.868 26.3094 40.527 26.1851C40.1956 26.0643 39.4524 25.8603 38.8753 25.7319C38.2982 25.6034 37.3425 25.4273 36.7516 25.3407C36.1607 25.2541 34.7541 25.0785 33.626 24.9505C32.4978 24.8226 31.5472 24.7484 31.5136 24.7857C31.4799 24.823 31.4233 25.1928 31.3876 25.6075C31.3249 26.3381 31.3299 26.3629 31.5466 26.4092C31.6695 26.4355 32.4514 26.528 33.2841 26.6148C34.1168 26.7017 35.5082 26.877 36.376 27.0043C37.2439 27.1317 38.3647 27.3337 38.8668 27.4534L39.7795 27.6709L39.2208 27.8442C38.9135 27.9396 37.7707 28.1505 36.6813 28.3129C35.5918 28.4754 34.0411 28.6782 33.2353 28.7635C32.4294 28.8488 30.8717 29.0027 29.7737 29.1055C28.6757 29.2084 27.7679 29.2825 27.7563 29.2702C27.7446 29.258 28.5702 27.1606 29.5908 24.6093C30.6113 22.0581 31.4617 19.9549 31.4803 19.9358C31.499 19.9166 32.429 19.7981 33.5469 19.6723C34.6649 19.5465 35.9091 19.3964 36.3121 19.3387C36.715 19.281 37.3303 19.1865 37.6795 19.1287C38.0287 19.0708 38.752 18.9174 39.2869 18.7877C39.8217 18.6579 40.5434 18.4097 40.8905 18.2359C41.2376 18.062 41.6112 17.7986 41.7205 17.6502C41.8571 17.465 41.9319 17.1824 41.9597 16.7469L42 16.1132H40.3168V16.4028C40.3168 16.5987 40.2492 16.7285 40.1078 16.8041C39.9929 16.8656 39.7621 16.9568 39.595 17.0066C39.4279 17.0565 38.8956 17.1798 38.4121 17.2807C37.9286 17.3816 36.8517 17.5563 36.019 17.6689C35.1863 17.7816 33.9996 17.9295 33.3818 17.9978L32.2585 18.1219V13.0892C32.2585 9.07619 32.2314 7.9798 32.1246 7.67755C32.051 7.46916 31.8342 7.1254 31.643 6.91369C31.4516 6.70197 31.1383 6.4506 30.9465 6.35499C30.7549 6.25939 29.4772 5.90499 28.1073 5.56739C26.7374 5.22989 25.5829 4.92374 25.5417 4.88722C25.5004 4.85069 25.6264 4.2964 25.8215 3.65548C26.0375 2.9461 26.1751 2.29424 26.1732 1.98946C26.1713 1.6876 26.093 1.33858 25.9761 1.11055C25.8694 0.902541 25.6783 0.635548 25.5515 0.517286C25.4246 0.398927 25.1581 0.23418 24.959 0.151075C24.76 0.0678713 24.387 -9.75513e-05 24.1301 1.05102e-07C23.8506 1.05102e-07 23.4946 0.0833987 23.2434 0.207715ZM24.4751 1.92481C24.492 2.04356 24.0635 3.61339 23.5228 5.41329L22.5398 8.68596V13.4738C22.5398 16.1072 22.5623 18.2617 22.5898 18.2617C22.6173 18.2617 23.2877 17.9357 24.0793 17.5373C25.3646 16.8907 25.5971 16.7336 26.249 16.0725C26.9738 15.3374 26.9829 15.332 27.4907 15.332C27.7748 15.332 28.2515 15.2387 28.5627 15.1224C28.8931 14.9988 29.3138 14.7343 29.5881 14.4779C29.8438 14.2387 30.1646 13.819 30.3011 13.5452L30.5492 13.0475V15.3648C30.5492 17.0973 30.5157 17.7621 30.4164 17.9997L30.2836 18.3175L25.9477 18.6831C23.563 18.8842 21.469 19.0714 21.2944 19.0991L20.977 19.1495V8.27843L22.3631 5.14015C23.1255 3.41407 23.8153 1.92305 23.8961 1.82666C23.9769 1.73028 24.1333 1.66436 24.2437 1.68018C24.3649 1.69746 24.4567 1.79453 24.4751 1.92481ZM27.6462 7.18097C29.609 7.67003 30.2473 7.86652 30.3783 8.02189C30.5247 8.19562 30.5491 8.43654 30.5482 9.70314L30.5472 11.1816L30.316 10.6933C30.1888 10.4247 29.9365 10.056 29.7553 9.87385C29.5742 9.69172 29.2721 9.44582 29.0841 9.32736C28.896 9.20891 28.5794 9.05851 28.3804 8.99318C28.1813 8.92785 27.7386 8.87443 27.3963 8.87443C27.0119 8.87443 26.5788 8.94865 26.2632 9.06857C25.9822 9.17531 25.5605 9.41975 25.3261 9.61174C25.0917 9.80383 24.8013 10.1205 24.6806 10.3156C24.56 10.5107 24.4046 10.8293 24.3352 11.0236C24.2188 11.3489 24.2085 11.2849 24.2046 10.2151C24.2007 9.15724 24.2318 8.94748 24.5527 7.8713C24.7466 7.22121 24.925 6.65636 24.9492 6.61613C24.9734 6.57589 25.0138 6.54288 25.0391 6.54288C25.0643 6.54288 26.2375 6.82999 27.6462 7.18097ZM28.0487 10.6829C28.2279 10.7578 28.4957 10.9778 28.6437 11.1718C28.8062 11.3848 28.9299 11.6888 28.9559 11.939C28.9875 12.2432 28.9388 12.4702 28.773 12.7925C28.6274 13.0751 28.4076 13.3115 28.1561 13.4558C27.8553 13.6284 27.6571 13.6709 27.2942 13.6407C27.0319 13.6189 26.7071 13.5157 26.5617 13.4079C26.4179 13.3015 26.2014 13.0691 26.0805 12.8915C25.9336 12.6757 25.8608 12.424 25.8608 12.1325C25.8608 11.8699 25.9427 11.5507 26.0668 11.3301C26.18 11.1285 26.4327 10.8709 26.6284 10.7575C26.8239 10.6441 27.1503 10.5503 27.3534 10.549C27.5566 10.5478 27.8695 10.608 28.0487 10.6829ZM24.9039 14.1107L25.303 14.5641L24.8286 15.0456C24.5676 15.3106 24.3195 15.5273 24.2772 15.5273C24.2348 15.5273 24.2038 14.9231 24.208 14.1845C24.2155 12.8762 24.2194 12.8522 24.3603 13.2495C24.4397 13.4738 24.6844 13.8614 24.9039 14.1107ZM29.4444 20.4345C29.3724 20.609 28.9873 21.5796 28.5883 22.5914L27.8631 24.4308L27.3747 24.3752C27.1061 24.3446 26.0115 24.2431 24.9423 24.1497L22.9982 23.9797L22.1317 22.903C21.5305 22.1558 21.2213 21.679 21.1214 21.3456C21.0423 21.0814 20.9904 20.8525 21.0059 20.8369C21.0214 20.8213 22.7245 20.6588 24.7905 20.4758C26.8565 20.2928 28.7782 20.1372 29.0609 20.13L29.5751 20.1171L29.4444 20.4345ZM19.3515 21.1669C19.3779 21.261 19.4302 21.4916 19.4676 21.6796C19.5051 21.8676 19.6238 22.1972 19.7314 22.4121C19.8391 22.6269 20.0791 23.0114 20.265 23.2666L20.6029 23.7304H20.3218C20.1671 23.7304 19.1854 23.6424 18.1402 23.5348C17.0949 23.4273 15.6907 23.2717 15.0196 23.1891C14.3485 23.1065 13.2913 22.956 12.6701 22.8547C12.049 22.7534 11.2151 22.5918 10.8168 22.4957L10.0928 22.321L10.529 22.1927C10.7689 22.1221 11.5806 21.9572 12.3327 21.8262C13.0848 21.6953 14.4474 21.4992 15.3606 21.3904C16.2739 21.2816 17.3727 21.1541 17.8025 21.1071C18.2323 21.0601 18.7458 21.0159 18.9437 21.0088C19.2097 20.9994 19.3158 21.0405 19.3515 21.1669ZM25.7893 25.9184C26.4752 25.9881 27.0627 26.0714 27.0948 26.1035C27.1268 26.1356 26.8543 26.9112 26.4891 27.827L25.8251 29.4921H25.4659C25.2683 29.4921 24.9027 29.5201 24.6535 29.5543L24.2003 29.6164V28.0155C24.2003 27.135 24.1593 26.2721 24.1094 26.0979C24.0229 25.7963 24.031 25.7815 24.2804 25.7864C24.4243 25.7892 25.1034 25.8487 25.7893 25.9184ZM25.7631 34.9875L25.3099 34.9254C25.0607 34.8912 24.7091 34.8633 24.5285 34.8633H24.2003V31.2602L24.7131 31.2243C24.9951 31.2046 25.3468 31.1803 25.4945 31.1704L25.7631 31.1523V34.9875ZM22.5398 33.0566C22.5398 34.5264 22.5247 34.6678 22.3689 34.6671C22.2748 34.6667 21.2529 34.5777 20.0979 34.4694C18.9429 34.3612 17.2287 34.1873 16.2885 34.083C15.3484 33.9787 13.854 33.7811 12.9676 33.6439C12.0812 33.5067 11.0922 33.3204 10.7699 33.2299L10.1838 33.0653L10.7425 32.8949C11.0498 32.8012 12.1926 32.5916 13.2821 32.4292C14.3716 32.2667 16.1201 32.0439 17.1676 31.934C18.2152 31.8242 19.6877 31.6748 20.4398 31.6021C21.1919 31.5294 21.9721 31.4643 22.1735 31.4576L22.5398 31.4453V33.0566ZM25.4349 36.6211H25.7631V40.2344L25.4945 40.2352C25.3468 40.2356 24.9951 40.2638 24.7131 40.2976L24.2003 40.3593V36.4968L24.6535 36.559C24.9027 36.5931 25.2543 36.6211 25.4349 36.6211ZM29.365 36.9658C30.258 37.0479 31.8019 37.2031 32.7957 37.3106C33.7896 37.4181 35.3939 37.6176 36.3609 37.7537C37.3279 37.8897 38.4927 38.0913 38.9493 38.2015C39.4059 38.3117 39.7935 38.4143 39.8106 38.4296C39.8276 38.4447 39.4538 38.5482 38.9799 38.6595C38.5059 38.7707 37.5036 38.952 36.7525 39.0624C36.0013 39.1727 34.639 39.3484 33.725 39.4529C32.811 39.5573 31.1181 39.7315 29.9631 39.8401C28.8081 39.9486 27.7643 40.0378 27.6433 40.0382C27.4243 40.039 27.4236 40.0339 27.4236 38.4277C27.4236 37.0049 27.4421 36.8164 27.5824 36.8164C27.6698 36.8164 28.4719 36.8836 29.365 36.9658ZM25.6661 42.5537C25.6665 42.9162 25.6156 43.7771 25.553 44.4668L25.4391 45.7207L24.9907 45.6539C24.7439 45.6172 24.5361 45.5804 24.5288 45.5719C24.5214 45.5635 24.4664 45.0489 24.4067 44.4284C24.3469 43.8079 24.2979 43.0082 24.2979 42.6513V42.0024L24.8107 41.9665C25.0927 41.9468 25.4005 41.9225 25.4945 41.9126C25.6421 41.897 25.6655 41.9844 25.6661 42.5537ZM25.1411 47.8194C25.1066 48.0703 25.0567 48.2974 25.0301 48.324C25.0035 48.3506 24.9599 48.3506 24.9332 48.324C24.9067 48.2974 24.8567 48.0703 24.8223 47.8194C24.7637 47.3918 24.7736 47.3633 24.9817 47.3633C25.1897 47.3633 25.1997 47.3918 25.1411 47.8194Z" fill="white"/>
</svg>

<svg width="50" height="50" fill="none" xmlns="http://www.w3.org/2000/svg"><path fill-rule="evenodd" clip-rule="evenodd" d="M23.243.208c-.23.114-.53.353-.666.53-.136.179-.925 1.848-1.754 3.71l-1.506 3.386v5.696c0 5.34-.011 5.698-.171 5.743a8.343 8.343 0 0 1-.855.11c-.376.034-1.475.15-2.442.257a78.43 78.43 0 0 0-2.98.389c-.67.106-1.647.298-2.169.426-.521.129-1.215.354-1.542.5-.327.147-.7.393-.83.547-.13.155-.264.43-.298.61-.042.223-.006.449.11.694.106.222.349.476.62.648.246.156.711.365 1.034.465.323.1 1.005.271 1.514.381.51.11 1.542.288 2.294.396.753.108 1.983.263 2.735.345a287.605 287.605 0 0 0 5.675.544c.06 0 .191.186.293.412.16.353.186.65.186 2.075v1.663l-1.905.17c-1.047.093-2.937.283-4.2.422-1.262.14-3.042.38-3.956.537-.913.156-2.018.395-2.456.53-.437.137-1.009.39-1.27.565-.352.235-.51.42-.613.72-.122.352-.121.453.003.781.098.262.288.476.615.696.26.174.832.427 1.271.561.439.134 1.268.33 1.842.435.575.106 1.694.28 2.487.388.793.108 2.563.307 3.933.442 1.37.135 2.886.279 3.37.32l.879.075.066 3.613c.037 1.987.109 4.031.16 4.541.051.51.087.933.08.938-.007.005-.65-.049-1.43-.12-.778-.071-2.515-.243-3.858-.381a110.055 110.055 0 0 1-4.004-.487c-.86-.13-1.886-.303-2.281-.386-.395-.083-.785-.188-.866-.234-.107-.06-.018-.115.328-.202.26-.066.933-.204 1.494-.307.56-.103 1.703-.274 2.54-.38.835-.105 2.201-.26 3.034-.342.832-.082 1.728-.177 1.99-.21l.478-.06-.053-.777c-.03-.428-.077-.801-.106-.83-.03-.03-.791.02-1.694.11-.902.09-2.366.252-3.253.36-.886.107-2.11.28-2.72.385a32.02 32.02 0 0 0-1.891.384 9.876 9.876 0 0 0-1.362.454c-.318.143-.685.386-.815.54-.13.155-.265.432-.3.616-.043.233-.007.447.119.703.1.203.357.488.572.633.215.145.665.354 1.002.465.336.111 1.154.312 1.818.446.663.134 1.86.33 2.66.435.8.105 2.092.258 2.87.341.78.083 2.362.238 3.517.346 1.155.107 2.173.196 2.262.196.122 0 .178.128.226.514.036.282.126.733.2 1.002.086.305.258.607.458.8.177.17.445.356.597.413.15.057.445.104.653.104.207 0 .501-.047.653-.104.15-.057.419-.242.595-.412.19-.183.378-.506.464-.793.079-.266.143-.61.143-.763 0-.164.064-.302.156-.337.085-.033.998.015 2.027.107 1.029.091 3.058.298 4.508.46 1.45.16 3.257.397 4.014.524.758.128 1.68.334 2.052.458.634.212.676.244.704.543l.031.317h1.648v-.498c0-.274-.069-.644-.153-.822-.085-.178-.316-.435-.513-.57a3.93 3.93 0 0 0-.652-.36c-.161-.063-.601-.2-.977-.307a22.82 22.82 0 0 0-1.665-.373c-.54-.1-1.661-.27-2.491-.378-.83-.108-2.432-.288-3.56-.4a410.369 410.369 0 0 0-3.42-.324l-1.367-.121.015-.438a99.42 99.42 0 0 1 .121-1.995c.063-.907.152-1.584.214-1.622.059-.036.51-.096 1.002-.132a177.75 177.75 0 0 0 3.288-.308c1.316-.133 3.059-.33 3.873-.438.813-.108 1.912-.28 2.442-.381a25.39 25.39 0 0 0 1.65-.376 7.866 7.866 0 0 0 1.187-.445c.274-.139.59-.368.701-.51a1.6 1.6 0 0 0 .264-.585c.042-.224.004-.444-.12-.698-.121-.248-.35-.47-.694-.676-.282-.168-.942-.42-1.465-.56-.524-.14-1.325-.32-1.782-.401a61.758 61.758 0 0 0-1.881-.292c-.578-.08-2.073-.254-3.321-.385a200.25 200.25 0 0 0-3.762-.362l-1.491-.122.052-4.115.88-.075c.483-.041 1.977-.184 3.32-.319 1.344-.134 3.118-.334 3.944-.443.826-.11 1.967-.285 2.535-.39a19.957 19.957 0 0 0 1.82-.43c.432-.132.997-.374 1.255-.538.303-.193.52-.42.614-.644a1.25 1.25 0 0 0 .078-.706c-.042-.234-.193-.484-.427-.709-.205-.197-.623-.443-.964-.567a16.882 16.882 0 0 0-1.652-.453 35.572 35.572 0 0 0-2.123-.391c-.591-.087-1.998-.263-3.126-.39-1.128-.128-2.079-.203-2.112-.165-.034.037-.09.407-.126.822-.063.73-.058.755.159.801.122.027.904.119 1.737.206.833.087 2.224.262 3.092.39.868.127 1.989.329 2.49.448l.913.218-.558.173c-.307.096-1.45.306-2.54.469-1.09.162-2.64.365-3.446.45-.806.086-2.363.24-3.461.342-1.098.103-2.006.177-2.018.165-.011-.012.814-2.11 1.835-4.66 1.02-2.552 1.87-4.655 1.89-4.674.018-.02.948-.138 2.066-.264 1.118-.125 2.362-.276 2.765-.333a77.263 77.263 0 0 0 1.367-.21 28.17 28.17 0 0 0 1.608-.341c.535-.13 1.256-.378 1.604-.552.347-.174.72-.437.83-.586.136-.185.21-.468.239-.903l.04-.634h-1.683v.29c0 .196-.068.326-.21.401a3.365 3.365 0 0 1-.512.203c-.167.05-.7.173-1.183.274-.483.1-1.56.275-2.393.388-.833.113-2.02.26-2.637.329l-1.123.124v-5.033c0-4.013-.028-5.11-.134-5.411-.074-.209-.29-.553-.482-.764-.191-.212-.505-.463-.697-.559-.191-.096-1.469-.45-2.839-.788-1.37-.337-2.524-.643-2.565-.68-.042-.036.084-.59.28-1.232.216-.709.353-1.36.351-1.666a2.128 2.128 0 0 0-.197-.878 2.59 2.59 0 0 0-.424-.594 2.388 2.388 0 0 0-.593-.366A2.577 2.577 0 0 0 24.13 0c-.28 0-.635.083-.887.208Zm1.232 1.717c.017.119-.412 1.688-.952 3.488l-.983 3.273v4.788c0 2.633.022 4.788.05 4.788.027 0 .698-.326 1.49-.725 1.285-.646 1.517-.803 2.169-1.464.725-.736.734-.741 1.242-.741.284 0 .76-.093 1.072-.21.33-.123.75-.388 1.025-.644.256-.24.577-.659.713-.933l.248-.498v2.318c0 1.732-.033 2.397-.133 2.635l-.132.317-4.336.366c-2.385.201-4.479.388-4.654.416l-.317.05V8.28l1.386-3.139c.762-1.726 1.452-3.217 1.533-3.313a.434.434 0 0 1 .348-.147.277.277 0 0 1 .231.245Zm3.171 5.256c1.963.489 2.601.686 2.732.84.147.175.171.416.17 1.682v1.479l-.232-.489a3.533 3.533 0 0 0-.56-.82 4.653 4.653 0 0 0-.672-.546 3.85 3.85 0 0 0-.704-.334c-.199-.065-.641-.119-.984-.119-.384 0-.817.075-1.133.195a4.045 4.045 0 0 0-.937.543c-.234.192-.525.508-.645.704a4.524 4.524 0 0 0-.346.708c-.116.325-.127.26-.13-.809-.004-1.058.027-1.268.348-2.344.194-.65.372-1.215.396-1.255.024-.04.065-.073.09-.073.025 0 1.198.287 2.607.638Zm.403 3.502c.179.075.447.295.595.489.162.213.286.517.312.767.032.304-.017.531-.183.854a1.624 1.624 0 0 1-.617.663c-.3.172-.499.215-.862.185-.262-.022-.587-.125-.732-.233a2.552 2.552 0 0 1-.482-.516 1.313 1.313 0 0 1-.22-.76c0-.262.083-.581.207-.802a1.8 1.8 0 0 1 .561-.572c.196-.114.522-.208.725-.209a2.13 2.13 0 0 1 .696.134Zm-3.145 3.428.399.453-.474.482c-.261.265-.51.481-.552.481-.042 0-.073-.604-.069-1.342.008-1.309.011-1.333.152-.936.08.225.324.612.544.862Zm4.54 6.323a371.24 371.24 0 0 0-.856 2.157l-.725 1.84-.488-.056a169.48 169.48 0 0 0-2.433-.225l-1.944-.17-.866-1.077c-.602-.747-.91-1.224-1.01-1.557-.08-.265-.132-.494-.116-.51.015-.015 1.718-.177 3.785-.36 2.066-.183 3.987-.339 4.27-.346l.514-.013-.13.317Zm-10.092.733c.026.094.078.325.116.513.037.188.156.517.263.732.108.215.348.6.534.855l.338.463h-.281c-.155 0-1.137-.088-2.182-.195-1.045-.108-2.45-.263-3.12-.346a73.48 73.48 0 0 1-2.35-.334 31.64 31.64 0 0 1-1.853-.36l-.724-.174.436-.128c.24-.07 1.052-.236 1.804-.367.752-.13 2.114-.327 3.028-.436.913-.108 2.012-.236 2.441-.283.43-.047.944-.091 1.142-.098.266-.01.372.032.408.158Zm6.437 4.751c.686.07 1.274.153 1.306.186.032.032-.24.807-.606 1.723l-.664 1.665h-.36c-.197 0-.562.028-.811.062l-.454.062v-1.6c0-.881-.04-1.744-.09-1.918-.087-.302-.079-.316.17-.312.144.003.823.063 1.51.132Zm-.026 9.07-.453-.063a7.12 7.12 0 0 0-.781-.062H24.2V31.26l.513-.036.781-.054.27-.018v3.835Zm-3.223-1.931c0 1.47-.015 1.61-.171 1.61-.094 0-1.116-.09-2.271-.198-1.155-.108-2.87-.282-3.81-.386a94.319 94.319 0 0 1-3.32-.44c-.887-.136-1.876-.323-2.198-.413l-.586-.165.559-.17c.307-.094 1.45-.303 2.54-.466 1.089-.162 2.837-.385 3.885-.495 1.047-.11 2.52-.26 3.272-.332a47.494 47.494 0 0 1 1.733-.144l.367-.013v1.612Zm2.895 3.564h.328v3.613l-.269.001a8.69 8.69 0 0 0-.78.063l-.514.061v-3.862l.454.062c.249.034.6.062.78.062Zm3.93.345c.893.082 2.437.237 3.43.345.995.107 2.599.307 3.566.443.967.136 2.132.337 2.588.448.457.11.845.212.862.228.017.015-.357.118-.831.23-.474.11-1.476.292-2.227.402-.752.11-2.114.286-3.028.39-.914.105-2.607.28-3.762.388a81.32 81.32 0 0 1-2.32.198c-.219.001-.22-.004-.22-1.61 0-1.423.02-1.612.16-1.612.087 0 .889.068 1.782.15Zm-3.699 5.588c0 .362-.05 1.223-.113 1.913l-.114 1.254-.448-.067a4.436 4.436 0 0 1-.462-.082 28.506 28.506 0 0 1-.122-1.144c-.06-.62-.11-1.42-.11-1.777v-.649l.514-.035c.282-.02.59-.044.683-.054.148-.016.172.071.172.64Zm-.525 5.265c-.034.251-.084.478-.11.505a.069.069 0 0 1-.098 0c-.026-.027-.076-.254-.11-.505-.06-.427-.05-.456.159-.456.208 0 .218.029.16.456Z" fill="#fff"/></svg>
